actions/24/view-reader.svg

<?xml version="1.0" encoding="UTF-8" standalone="no"?>
<svg
   xmlns:dc="http://purl.org/dc/elements/1.1/"
   xmlns:cc="http://creativecommons.org/ns#"
   xmlns:rdf="http://www.w3.org/1999/02/22-rdf-syntax-ns#"
   xmlns:svg="http://www.w3.org/2000/svg"
   xmlns="http://www.w3.org/2000/svg"
   xmlns:xlink="http://www.w3.org/1999/xlink"
   version="1.1"
   id="svg4942"
   height="24"
   width="24">
  <defs
     id="defs4944">
    <linearGradient
       id="linearGradient898">
      <stop
         id="stop894"
         style="stop-color:#fafafa;stop-opacity:1"
         offset="0" />
      <stop
         id="stop896"
         style="stop-color:#d4d4d4;stop-opacity:1"
         offset="1" />
    </linearGradient>
    <linearGradient
       gradientTransform="matrix(0.37254902,0,0,0.37288135,-0.29411914,-368.22823)"
       gradientUnits="userSpaceOnUse"
       y2="1046.5211"
       x2="50.447372"
       y1="1011.6575"
       x1="50.447372"
       id="linearGradient4899"
       xlink:href="#linearGradient3994-617-9-9" />
    <linearGradient
       id="linearGradient3994-617-9-9">
      <stop
         offset="0"
         style="stop-color:#d4d4d4;stop-opacity:1"
         id="stop4324-9-7" />
      <stop
         offset="1"
         style="stop-color:#abacae;stop-opacity:1"
         id="stop4326-1-1" />
    </linearGradient>
    <linearGradient
       id="linearGradient3688-166-749-654">
      <stop
         offset="0"
         style="stop-color:#181818;stop-opacity:1"
         id="stop3088" />
      <stop
         offset="1"
         style="stop-color:#181818;stop-opacity:0"
         id="stop3090" />
    </linearGradient>
    <linearGradient
       id="linearGradient3688-464-309-604">
      <stop
         offset="0"
         style="stop-color:#181818;stop-opacity:1"
         id="stop3094" />
      <stop
         offset="1"
         style="stop-color:#181818;stop-opacity:0"
         id="stop3096" />
    </linearGradient>
    <linearGradient
       id="linearGradient3702-501-757-795">
      <stop
         offset="0"
         style="stop-color:#181818;stop-opacity:0"
         id="stop3100" />
      <stop
         offset="0.5"
         style="stop-color:#181818;stop-opacity:1"
         id="stop3102" />
      <stop
         offset="1"
         style="stop-color:#181818;stop-opacity:0"
         id="stop3104" />
    </linearGradient>
    <linearGradient
       y2="39.999443"
       x2="25.058096"
       y1="47.027729"
       x1="25.058096"
       gradientTransform="matrix(0.50000002,0,0,0.57142849,-0.03333,1025.5051)"
       gradientUnits="userSpaceOnUse"
       id="linearGradient6854"
       xlink:href="#linearGradient3702-501-757-795" />
    <radialGradient
       r="2.5"
       fy="43.5"
       fx="4.9929786"
       cy="43.5"
       cx="4.9929786"
       gradientTransform="matrix(1.5819375,0,0,0.79999996,-12.851495,-1085.1623)"
       gradientUnits="userSpaceOnUse"
       id="radialGradient6857"
       xlink:href="#linearGradient3688-464-309-604" />
    <radialGradient
       r="2.5"
       fy="43.5"
       fx="4.9964824"
       cy="43.5"
       cx="4.9964824"
       gradientTransform="matrix(1.6030271,2.1079247e-7,-4.1092973e-8,0.80000616,10.990502,1015.5619)"
       gradientUnits="userSpaceOnUse"
       id="radialGradient6860"
       xlink:href="#linearGradient3688-166-749-654" />
    <linearGradient
       x1="23.99999"
       y1="8.782011"
       x2="23.99999"
       y2="50.081066"
       id="linearGradient5397"
       xlink:href="#linearGradient3924-64"
       gradientUnits="userSpaceOnUse"
       gradientTransform="matrix(0.45945947,0,0,0.45945947,-2.0270305,-2.0270233)" />
    <linearGradient
       id="linearGradient3924-64">
      <stop
         id="stop3926-3-6"
         style="stop-color:#ffffff;stop-opacity:1"
         offset="0" />
      <stop
         id="stop3928-0"
         style="stop-color:#ffffff;stop-opacity:0.23529412"
         offset="0" />
      <stop
         id="stop3930-3-59"
         style="stop-color:#ffffff;stop-opacity:0.15686275"
         offset="1" />
      <stop
         id="stop3932-0"
         style="stop-color:#ffffff;stop-opacity:0.39215687"
         offset="1" />
    </linearGradient>
    <linearGradient
       xlink:href="#linearGradient898"
       id="linearGradient885"
       gradientUnits="userSpaceOnUse"
       gradientTransform="matrix(0.37254902,0,0,0.37288135,-0.29411914,-368.22823)"
       x1="33"
       y1="995.56665"
       x2="33"
       y2="1046.5211" />
    <linearGradient
       xlink:href="#linearGradient3924-64"
       id="linearGradient953"
       gradientUnits="userSpaceOnUse"
       gradientTransform="matrix(0.45945947,0,0,0.45945947,-2.0270305,-2.0270233)"
       x1="23.99999"
       y1="8.782011"
       x2="23.99999"
       y2="50.081066" />
  </defs>
  <metadata
     id="metadata4947">
    <rdf:RDF>
      <cc:Work
         rdf:about="">
        <dc:format>image/svg+xml</dc:format>
        <dc:type
           rdf:resource="http://purl.org/dc/dcmitype/StillImage" />
        <dc:title />
      </cc:Work>
    </rdf:RDF>
  </metadata>
  <g
     transform="translate(0,-0.99998262)"
     id="g990">
    <g
       style="opacity:0.4"
       transform="translate(0,-1028.3622)"
       id="g6862">
      <rect
         style="opacity:1;fill:url(#radialGradient6860);fill-opacity:1;stroke:none"
         id="rect2801"
         y="1048.3622"
         x="19"
         height="4"
         width="4" />
      <rect
         style="opacity:1;fill:url(#radialGradient6857);fill-opacity:1;stroke:none"
         id="rect3696"
         transform="scale(-1)"
         y="-1052.3622"
         x="-5"
         height="4"
         width="4" />
      <rect
         style="opacity:1;fill:url(#linearGradient6854);fill-opacity:1;stroke:none;stroke-width:1"
         id="rect3700"
         y="1048.3622"
         x="5"
         height="4"
         width="14" />
    </g>
    <path
       id="rect868"
       d="M 12.5,9 C 12.223,9 12,9.223 12,9.5 V 18 18.5 20 c 0,1.108 0.892,2 2,2 h 5 c 1.108,0 2,-0.892 2,-2 V 18.5 18 9.5 C 21,9.223 20.777,9 20.5,9 Z"
       style="fill:url(#linearGradient4899);stroke:none" />
    <path
       id="rect870"
       d="m 12.5,9.5 v 1.5 7 2 c 0,0.831 0.669,1.5 1.5,1.5 h 5 c 0.831,0 1.5,-0.669 1.5,-1.5 V 18 11 9.5 H 19 14 Z"
       style="opacity:1;vector-effect:none;fill:none;fill-opacity:1;stroke:url(#linearGradient953);stroke-width:0.99999988;stroke-linecap:round;stroke-linejoin:round;stroke-miterlimit:4;stroke-dasharray:none;stroke-dashoffset:0;stroke-opacity:1" />
    <path
       id="rect866"
       d="m 3.5,2.5 c -0.554,0 -1,0.446 -1,1 V 20 c 0,1.34375 1.3125,2.5 2.5,2.5 h 7.5 5 1.5 c 1.414062,0 2.5,-1.21875 2.5,-2.5 V 9.5 c 0,-0.554 -0.446,-1 -1,-1 h -2 v -5 c 0,-0.554 -0.446,-1 -1,-1 z"
       style="opacity:0.5;fill:none;stroke:#555761;stroke-width:1;stroke-linecap:round;stroke-linejoin:miter;stroke-miterlimit:4;stroke-dasharray:none;stroke-opacity:1" />
    <path
       id="rect4897"
       d="M 3.5,3 C 3.223,3 3,3.223 3,3.5 V 18 19.515625 20 c 0,1 1,2 2,2 H 5.2929688 10 17.5 c 0.1385,0 1.472806,0.133862 2.324084,-0.142957 0.851278,-0.276819 1.219527,-0.964319 1.082166,-0.982043 0,0 -0.820312,0.125 -1.40625,0.125 C 18.914062,21 18,20.5 18,20.5 V 3.5 C 18,3.223 17.777,3 17.5,3 Z"
       style="fill:url(#linearGradient885);stroke:none" />
    <path
       id="rect4935"
       d="m 3.5,3.5 h 14 v 17 l 2,1 H 17.5 5 C 4.5,21.5 3.5,21 3.5,20 Z"
       style="opacity:1;vector-effect:none;fill:none;fill-opacity:1;stroke:url(#linearGradient5397);stroke-width:0.99999988;stroke-linecap:round;stroke-linejoin:round;stroke-miterlimit:4;stroke-dasharray:none;stroke-dashoffset:0;stroke-opacity:1" />
    <path
       id="path900"
       d="m 18.5,9 v 11 c 0,0 0.25,0.5 1.5,0.5 1.25,0 1.5,-1 1.5,-1"
       style="opacity:0.3;fill:none;stroke:#555761;stroke-width:1px;stroke-linecap:butt;stroke-linejoin:miter;stroke-opacity:1" />
    <rect
       y="7.5"
       x="9.5"
       height="6"
       width="7"
       id="rect904"
       style="opacity:0.6;vector-effect:none;fill:none;fill-opacity:1;stroke:#555761;stroke-width:1;stroke-linecap:round;stroke-linejoin:miter;stroke-miterlimit:4;stroke-dasharray:none;stroke-dashoffset:0;stroke-opacity:1" />
    <path
       id="path906"
       d="M 4,7.5 H 8"
       style="opacity:0.6;fill:none;stroke:#555761;stroke-width:1px;stroke-linecap:butt;stroke-linejoin:miter;stroke-opacity:1" />
    <path
       id="path908"
       d="M 4,9.5 H 5"
       style="opacity:0.6;fill:none;stroke:#555761;stroke-width:1px;stroke-linecap:butt;stroke-linejoin:miter;stroke-opacity:1" />
    <path
       id="path910"
       d="M 6,9.5 H 8"
       style="opacity:0.6;fill:none;stroke:#555761;stroke-width:1px;stroke-linecap:butt;stroke-linejoin:miter;stroke-opacity:1" />
    <path
       id="path912"
       d="M 4,11.5 H 6"
       style="opacity:0.6;fill:none;stroke:#555761;stroke-width:1px;stroke-linecap:butt;stroke-linejoin:miter;stroke-opacity:1" />
    <path
       id="path914"
       d="M 7,11.5 H 8"
       style="opacity:0.6;fill:none;stroke:#555761;stroke-width:1px;stroke-linecap:butt;stroke-linejoin:miter;stroke-opacity:1" />
    <path
       id="path916"
       d="M 4,13.5 H 7"
       style="opacity:0.6;fill:none;stroke:#555761;stroke-width:1px;stroke-linecap:butt;stroke-linejoin:miter;stroke-opacity:1" />
    <path
       id="path918"
       d="M 4,15.5 H 8"
       style="opacity:0.6;fill:none;stroke:#555761;stroke-width:1px;stroke-linecap:butt;stroke-linejoin:miter;stroke-opacity:1" />
    <path
       id="path920"
       d="m 9,15.5 h 2"
       style="opacity:0.6;fill:none;stroke:#555761;stroke-width:1px;stroke-linecap:butt;stroke-linejoin:miter;stroke-opacity:1" />
    <path
       id="path922"
       d="m 12,15.5 h 4"
       style="opacity:0.6;fill:none;stroke:#555761;stroke-width:1px;stroke-linecap:butt;stroke-linejoin:miter;stroke-opacity:1" />
    <path
       id="path924"
       d="M 4,17.5 H 7"
       style="opacity:0.6;fill:none;stroke:#555761;stroke-width:1px;stroke-linecap:butt;stroke-linejoin:miter;stroke-opacity:1" />
    <path
       id="path926"
       d="m 8,17.5 h 3"
       style="opacity:0.6;fill:none;stroke:#555761;stroke-width:1px;stroke-linecap:butt;stroke-linejoin:miter;stroke-opacity:1" />
    <path
       id="path928"
       d="m 12,17.5 h 2"
       style="opacity:0.6;fill:none;stroke:#555761;stroke-width:1px;stroke-linecap:butt;stroke-linejoin:miter;stroke-opacity:1" />
    <path
       id="path930"
       d="M 4,19.5 H 6"
       style="opacity:0.6;fill:none;stroke:#555761;stroke-width:1px;stroke-linecap:butt;stroke-linejoin:miter;stroke-opacity:1" />
    <path
       id="path932"
       d="m 7,19.5 h 3"
       style="opacity:0.6;fill:none;stroke:#555761;stroke-width:1px;stroke-linecap:butt;stroke-linejoin:miter;stroke-opacity:1" />
    <path
       id="path934"
       d="m 11,19.5 h 5"
       style="opacity:0.6;fill:none;stroke:#555761;stroke-width:1px;stroke-linecap:butt;stroke-linejoin:miter;stroke-opacity:1" />
    <path
       id="path936"
       d="m 4,4.5 h 6"
       style="fill:none;stroke:#7e8087;stroke-width:1px;stroke-linecap:butt;stroke-linejoin:miter;stroke-opacity:1" />
    <path
       id="path938"
       d="m 11,4.5 h 2"
       style="fill:none;stroke:#7e8087;stroke-width:1px;stroke-linecap:butt;stroke-linejoin:miter;stroke-opacity:1" />
    <path
       id="path940"
       d="m 14,4.5 h 3"
       style="fill:none;stroke:#7e8087;stroke-width:1px;stroke-linecap:butt;stroke-linejoin:miter;stroke-opacity:1" />
    <path
       id="path942"
       d="m 13,9 a 1,1 0 0 0 -1,1 1,1 0 0 0 1,1 1,1 0 0 0 1,-1 1,1 0 0 0 -1,-1 z m 0,2 h -1 c -0.554,0 -1,0.446 -1,1 v 1 h 1 2 1 v -1 c 0,-0.554 -0.446,-1 -1,-1 z"
       style="opacity:0.6;vector-effect:none;fill:#555761;fill-opacity:1;stroke:none;stroke-width:1;stroke-linecap:round;stroke-linejoin:miter;stroke-miterlimit:4;stroke-dasharray:none;stroke-dashoffset:0;stroke-opacity:1" />
  </g>
</svg>

<?xml version="1.0" encoding="UTF-8" standalone="no"?>
<svg
   xmlns:dc="http://purl.org/dc/elements/1.1/"
   xmlns:cc="http://creativecommons.org/ns#"
   xmlns:rdf="http://www.w3.org/1999/02/22-rdf-syntax-ns#"
   xmlns:svg="http://www.w3.org/2000/svg"
   xmlns="http://www.w3.org/2000/svg"
   xmlns:xlink="http://www.w3.org/1999/xlink"
   width="24"
   height="24"
   id="svg4942"
   version="1.1">
  <defs
     id="defs4944">
    <linearGradient
       id="linearGradient898">
      <stop
         offset="0"
         style="stop-color:#fafafa;stop-opacity:1"
         id="stop894" />
      <stop
         offset="1"
         style="stop-color:#d4d4d4;stop-opacity:1"
         id="stop896" />
    </linearGradient>
    <linearGradient
       xlink:href="#linearGradient3994-617-9-9"
       id="linearGradient4899"
       x1="50.447372"
       y1="1011.6575"
       x2="50.447372"
       y2="1046.5211"
       gradientUnits="userSpaceOnUse"
       gradientTransform="matrix(0.37254902,0,0,0.37288135,-0.29411914,-368.22823)" />
    <linearGradient
       id="linearGradient3994-617-9-9">
      <stop
         id="stop4324-9-7"
         style="stop-color:#d4d4d4;stop-opacity:1"
         offset="0" />
      <stop
         id="stop4326-1-1"
         style="stop-color:#abacae;stop-opacity:1"
         offset="1" />
    </linearGradient>
    <linearGradient
       id="linearGradient3688-166-749-654">
      <stop
         id="stop3088"
         style="stop-color:#181818;stop-opacity:1"
         offset="0" />
      <stop
         id="stop3090"
         style="stop-color:#181818;stop-opacity:0"
         offset="1" />
    </linearGradient>
    <linearGradient
       id="linearGradient3688-464-309-604">
      <stop
         id="stop3094"
         style="stop-color:#181818;stop-opacity:1"
         offset="0" />
      <stop
         id="stop3096"
         style="stop-color:#181818;stop-opacity:0"
         offset="1" />
    </linearGradient>
    <linearGradient
       id="linearGradient3702-501-757-795">
      <stop
         id="stop3100"
         style="stop-color:#181818;stop-opacity:0"
         offset="0" />
      <stop
         id="stop3102"
         style="stop-color:#181818;stop-opacity:1"
         offset="0.5" />
      <stop
         id="stop3104"
         style="stop-color:#181818;stop-opacity:0"
         offset="1" />
    </linearGradient>
    <linearGradient
       xlink:href="#linearGradient3702-501-757-795"
       id="linearGradient6854"
       gradientUnits="userSpaceOnUse"
       gradientTransform="matrix(0.50000002,0,0,0.57142849,-0.03333,1025.5051)"
       x1="25.058096"
       y1="47.027729"
       x2="25.058096"
       y2="39.999443" />
    <radialGradient
       xlink:href="#linearGradient3688-464-309-604"
       id="radialGradient6857"
       gradientUnits="userSpaceOnUse"
       gradientTransform="matrix(1.5819375,0,0,0.79999996,-12.851495,-1085.1623)"
       cx="4.9929786"
       cy="43.5"
       fx="4.9929786"
       fy="43.5"
       r="2.5" />
    <radialGradient
       xlink:href="#linearGradient3688-166-749-654"
       id="radialGradient6860"
       gradientUnits="userSpaceOnUse"
       gradientTransform="matrix(1.6030271,2.1079247e-7,-4.1092973e-8,0.80000616,10.990502,1015.5619)"
       cx="4.9964824"
       cy="43.5"
       fx="4.9964824"
       fy="43.5"
       r="2.5" />
    <linearGradient
       gradientTransform="matrix(0.45945947,0,0,0.45945947,-2.0270305,-2.0270233)"
       gradientUnits="userSpaceOnUse"
       xlink:href="#linearGradient3924-64"
       id="linearGradient5397"
       y2="50.081066"
       x2="23.99999"
       y1="8.782011"
       x1="23.99999" />
    <linearGradient
       id="linearGradient3924-64">
      <stop
         offset="0"
         style="stop-color:#ffffff;stop-opacity:1"
         id="stop3926-3-6" />
      <stop
         offset="0"
         style="stop-color:#ffffff;stop-opacity:0.23529412"
         id="stop3928-0" />
      <stop
         offset="1"
         style="stop-color:#ffffff;stop-opacity:0.15686275"
         id="stop3930-3-59" />
      <stop
         offset="1"
         style="stop-color:#ffffff;stop-opacity:0.39215687"
         id="stop3932-0" />
    </linearGradient>
    <linearGradient
       y2="1046.5211"
       x2="33"
       y1="995.56665"
       x1="33"
       gradientTransform="matrix(0.37254902,0,0,0.37288135,-0.29411914,-368.22823)"
       gradientUnits="userSpaceOnUse"
       id="linearGradient885"
       xlink:href="#linearGradient898" />
    <linearGradient
       y2="50.081066"
       x2="23.99999"
       y1="8.782011"
       x1="23.99999"
       gradientTransform="matrix(0.45945947,0,0,0.45945947,-2.0270305,-2.0270233)"
       gradientUnits="userSpaceOnUse"
       id="linearGradient953"
       xlink:href="#linearGradient3924-64" />
  </defs>
  <metadata
     id="metadata4947">
    <rdf:RDF>
      <cc:Work
         rdf:about="">
        <dc:format>image/svg+xml</dc:format>
        <dc:type
           rdf:resource="http://purl.org/dc/dcmitype/StillImage" />
        <dc:title />
      </cc:Work>
    </rdf:RDF>
  </metadata>
  <g
     id="g990">
    <g
       id="g6862"
       transform="translate(0,-1028.3622)"
       style="opacity:0.4">
      <rect
         width="4"
         height="4"
         x="19"
         y="1048.3622"
         id="rect2801"
         style="opacity:1;fill:url(#radialGradient6860);fill-opacity:1;stroke:none" />
      <rect
         width="4"
         height="4"
         x="-5"
         y="-1052.3622"
         transform="scale(-1)"
         id="rect3696"
         style="opacity:1;fill:url(#radialGradient6857);fill-opacity:1;stroke:none" />
      <rect
         width="14"
         height="4"
         x="5"
         y="1048.3622"
         id="rect3700"
         style="opacity:1;fill:url(#linearGradient6854);fill-opacity:1;stroke:none;stroke-width:1" />
    </g>
    <path
       style="fill:url(#linearGradient4899);stroke:none"
       d="M 12.5 9 C 12.223 9 12 9.223 12 9.5 L 12 18 L 12 18.5 L 12 20 C 12 21.108 12.892 22 14 22 L 19 22 C 20.108 22 21 21.108 21 20 L 21 18.5 L 21 18 L 21 9.5 C 21 9.223 20.777 9 20.5 9 L 12.5 9 z "
       id="rect868" />
    <path
       style="opacity:1;vector-effect:none;fill:none;fill-opacity:1;stroke:url(#linearGradient953);stroke-width:0.99999988;stroke-linecap:round;stroke-linejoin:round;stroke-miterlimit:4;stroke-dasharray:none;stroke-dashoffset:0;stroke-opacity:1"
       d="M 12.5 9.5 L 12.5 11 L 12.5 18 L 12.5 20 C 12.5 20.831 13.169 21.5 14 21.5 L 19 21.5 C 19.831 21.5 20.5 20.831 20.5 20 L 20.5 18 L 20.5 11 L 20.5 9.5 L 19 9.5 L 14 9.5 L 12.5 9.5 z "
       id="rect870" />
    <path
       style="opacity:0.5;fill:none;stroke:#555761;stroke-width:1;stroke-linecap:round;stroke-linejoin:miter;stroke-miterlimit:4;stroke-dasharray:none;stroke-opacity:1"
       d="m 3.5,2.5 c -0.554,0 -1,0.446 -1,1 V 20 c 0,1.34375 1.3125,2.5 2.5,2.5 h 7.5 5 1.5 c 1.414062,0 2.5,-1.21875 2.5,-2.5 V 9.5 c 0,-0.554 -0.446,-1 -1,-1 h -2 v -5 c 0,-0.554 -0.446,-1 -1,-1 z"
       id="rect866" />
    <path
       style="fill:url(#linearGradient885);stroke:none"
       d="M 3.5,3 C 3.223,3 3,3.223 3,3.5 V 18 19.515625 20 c 0,1 1,2 2,2 H 5.2929688 10 17.5 c 0.1385,0 1.472806,0.133862 2.324084,-0.142957 0.851278,-0.276819 1.219527,-0.964319 1.082166,-0.982043 0,0 -0.820312,0.125 -1.40625,0.125 C 18.914062,21 18,20.5 18,20.5 V 3.5 C 18,3.223 17.777,3 17.5,3 Z"
       id="rect4897" />
    <path
       style="opacity:1;vector-effect:none;fill:none;fill-opacity:1;stroke:url(#linearGradient5397);stroke-width:0.99999988;stroke-linecap:round;stroke-linejoin:round;stroke-miterlimit:4;stroke-dasharray:none;stroke-dashoffset:0;stroke-opacity:1"
       d="m 3.5,3.5 h 14 v 17 l 2,1 H 17.5 5 C 4.5,21.5 3.5,21 3.5,20 Z"
       id="rect4935" />
    <path
       style="opacity:0.3;fill:none;stroke:#555761;stroke-width:1px;stroke-linecap:butt;stroke-linejoin:miter;stroke-opacity:1"
       d="m 18.5,9 v 11 c 0,0 0.25,0.5 1.5,0.5 1.25,0 1.5,-1 1.5,-1"
       id="path900" />
    <rect
       style="opacity:0.6;vector-effect:none;fill:none;fill-opacity:1;stroke:#555761;stroke-width:1;stroke-linecap:round;stroke-linejoin:miter;stroke-miterlimit:4;stroke-dasharray:none;stroke-dashoffset:0;stroke-opacity:1"
       id="rect904"
       width="7"
       height="6"
       x="9.5"
       y="7.5" />
    <path
       style="fill:none;stroke:#555761;stroke-width:1px;stroke-linecap:butt;stroke-linejoin:miter;stroke-opacity:1;opacity:0.6"
       d="M 4,7.5 H 8"
       id="path906" />
    <path
       style="fill:none;stroke:#555761;stroke-width:1px;stroke-linecap:butt;stroke-linejoin:miter;stroke-opacity:1;opacity:0.6"
       d="M 4,9.5 H 5"
       id="path908" />
    <path
       style="fill:none;stroke:#555761;stroke-width:1px;stroke-linecap:butt;stroke-linejoin:miter;stroke-opacity:1;opacity:0.6"
       d="M 6,9.5 H 8"
       id="path910" />
    <path
       style="fill:none;stroke:#555761;stroke-width:1px;stroke-linecap:butt;stroke-linejoin:miter;stroke-opacity:1;opacity:0.6"
       d="M 4,11.5 H 6"
       id="path912" />
    <path
       style="fill:none;stroke:#555761;stroke-width:1px;stroke-linecap:butt;stroke-linejoin:miter;stroke-opacity:1;opacity:0.6"
       d="M 7,11.5 H 8"
       id="path914" />
    <path
       style="fill:none;stroke:#555761;stroke-width:1px;stroke-linecap:butt;stroke-linejoin:miter;stroke-opacity:1;opacity:0.6"
       d="M 4,13.5 H 7"
       id="path916" />
    <path
       style="fill:none;stroke:#555761;stroke-width:1px;stroke-linecap:butt;stroke-linejoin:miter;stroke-opacity:1;opacity:0.6"
       d="M 4,15.5 H 8"
       id="path918" />
    <path
       style="fill:none;stroke:#555761;stroke-width:1px;stroke-linecap:butt;stroke-linejoin:miter;stroke-opacity:1;opacity:0.6"
       d="m 9,15.5 h 2"
       id="path920" />
    <path
       style="fill:none;stroke:#555761;stroke-width:1px;stroke-linecap:butt;stroke-linejoin:miter;stroke-opacity:1;opacity:0.6"
       d="m 12,15.5 h 4"
       id="path922" />
    <path
       style="fill:none;stroke:#555761;stroke-width:1px;stroke-linecap:butt;stroke-linejoin:miter;stroke-opacity:1;opacity:0.6"
       d="M 4,17.5 H 7"
       id="path924" />
    <path
       style="fill:none;stroke:#555761;stroke-width:1px;stroke-linecap:butt;stroke-linejoin:miter;stroke-opacity:1;opacity:0.6"
       d="m 8,17.5 h 3"
       id="path926" />
    <path
       style="fill:none;stroke:#555761;stroke-width:1px;stroke-linecap:butt;stroke-linejoin:miter;stroke-opacity:1;opacity:0.6"
       d="m 12,17.5 h 2"
       id="path928" />
    <path
       style="fill:none;stroke:#555761;stroke-width:1px;stroke-linecap:butt;stroke-linejoin:miter;stroke-opacity:1;opacity:0.6"
       d="M 4,19.5 H 6"
       id="path930" />
    <path
       style="fill:none;stroke:#555761;stroke-width:1px;stroke-linecap:butt;stroke-linejoin:miter;stroke-opacity:1;opacity:0.6"
       d="m 7,19.5 h 3"
       id="path932" />
    <path
       style="fill:none;stroke:#555761;stroke-width:1px;stroke-linecap:butt;stroke-linejoin:miter;stroke-opacity:1;opacity:0.6"
       d="m 11,19.5 h 5"
       id="path934" />
    <path
       style="fill:none;stroke:#7e8087;stroke-width:1px;stroke-linecap:butt;stroke-linejoin:miter;stroke-opacity:1"
       d="m 4,4.5 h 6"
       id="path936" />
    <path
       style="fill:none;stroke:#7e8087;stroke-width:1px;stroke-linecap:butt;stroke-linejoin:miter;stroke-opacity:1"
       d="m 11,4.5 h 2"
       id="path938" />
    <path
       style="fill:none;stroke:#7e8087;stroke-width:1px;stroke-linecap:butt;stroke-linejoin:miter;stroke-opacity:1"
       d="m 14,4.5 h 3"
       id="path940" />
    <path
       style="opacity:0.6;vector-effect:none;fill:#555761;fill-opacity:1;stroke:none;stroke-width:1;stroke-linecap:round;stroke-linejoin:miter;stroke-miterlimit:4;stroke-dasharray:none;stroke-dashoffset:0;stroke-opacity:1"
       d="M 13 9 A 1 1 0 0 0 12 10 A 1 1 0 0 0 13 11 A 1 1 0 0 0 14 10 A 1 1 0 0 0 13 9 z M 13 11 L 12 11 C 11.446 11 11 11.446 11 12 L 11 13 L 12 13 L 14 13 L 15 13 L 15 12 C 15 11.446 14.554 11 14 11 L 13 11 z "
       id="path942" />
  </g>
</svg>
